X:1
T:Dwelling in Beulah Land
T:Charles Austin Miles, 1911
T:Dwelling in Beulah Land
T:Public Domain
T:Public Domain
T:Public Domain
C:Charles Austin Miles, 1911
Z:Public Domain
%%score ( 1 2 ) 3
L:1/8
M:4/4
K:Bb
V:1 treble 
V:2 treble 
V:3 bass 
V:1
 [DB]3 [Dc] [DB]2 [EG]2 | [DF]3 [EG] [DF]2 [B,D]2 | [DF]3 [EG] [CF]2 [CE]2 | [B,D]2 [DF]6 | %4
w: 1.~Far a- way the|noise of strife up-|on my ear is|fall- ing.|
w: 2.~Far be- low the|storm of doubt up-|on the world is|beat- ing.|
w: 3.~Let the storm- y|breez- es blow, their|cry can- not a-|larm me;|
w: 4.~View- ing here the|works of God, I|sink in con- tem-|pla- tion.|
 [EG]3 [FA] [GB]2 [EG]2 | [DB]3 [DF] [DF]2 [DB]2 | [=EG]2 [Ec]2 [Ec]2 [Ed]2 | [Ec]8 | %8
w: Then I know the|sins of earth be-|set on ev- ery|hand.|
w: Sons of men in|bat- tle long the|en- e- my with-|stand.|
w: I am safe- ly|shel- tered here, pro-|tect- ed by God’s|hand.|
w: Hear- ing now His|bless- èd voice, I|see the way He|planned.|
 [DB]3 [Dc] [DB]2 [EG]2 | [DF]3 [EG] [DF]2 [B,D]2 | [DF]3 [EG] [CF]2 [CE]2 | [B,D]2 [DF]6 | %12
w: Doubt and fear and|things of earth in|vain to me are|call- ing.|
w: Safe am I with-|in the cas- tle|of God’s Word re-|treat- ing.|
w: Here the sun is|al- ways shin- ing,|here there’s naught can|harm me.|
w: Dwell- ing in the|Spir- it here I|learn of full sal-|va- tion.|
 [EG]3 [FA] [GB]2 [EG]2 | [DF]2 [DB]4 [Ge]2 | [Fd]4 [Ec]4 | [DB]6 ||"^Refrain" [DF]2 | %17
w: None of these shall|move me from|Beu- lah|Land.||
w: No- thing then can|reach me—’ tis|Beu- lah|Land.||
w: I am safe for-|ev- er in|Beu- lah|Land.||
w: Glad- ly I will|tar- ry in|Beu- lah|Land.||
 [DB]2 [DB]4 [EG]>[DF] | [DB]2 [DB]4 [B,D]>[CE] | [DF]2 [DF]2 [DF]2 [DF]2 | [EF]6 F2 | %21
w: ||||
w: ||||
w: ||||
w: ||||
 [EA]2 [EA]4 [EG]>[EF] | [DB]2 [Fd]4 [DB]2 | [=EG]2 [Ec]2 [Ec]2 [Ed]2 | [Ec]2 [EF]2 [DB]2 [Ec]2 | %25
w: ||||
w: ||||
w: ||||
w: ||||
 [Fd]2 [Fd]4 [Ec]>[DB] | [Fd]2 [Fd]4 [Ec]>[DB] | [Ec]2 [EB]2 [EG]2 [EB]2 | %28
w: |||
w: |||
w: |||
w: |||
 [DF]2 [DF]2 [B,D]2 [CE]2 | [DF]2 [DB]4 [Ge]2 | [Fd]4 [Ec]4 | [DB]8 |] %32
w: ||||
w: ||||
w: ||||
w: ||||
V:2
 x8 | x8 | x8 | x8 | x8 | x8 | x8 | x8 | x8 | x8 | x8 | x8 | x8 | x8 | x8 | x6 || x2 | x8 | x8 | %19
 x8 | x6 E2 | x8 | x8 | x8 | x8 | x8 | x8 | x8 | x8 | x8 | x8 | x8 |] %32
V:3
 [B,,B,]3 [B,,B,] [B,,B,]2 [B,,B,]2 | [B,,B,]3 [B,,B,] [B,,B,]2 [B,,F,]2 | %2
w: ~ ~ ~ ~|~ ~ ~ ~|
 [F,B,]3 [F,B,] [F,A,]2 [F,A,]2 | [B,,F,]2 [B,,B,]6 | [E,B,]3 [E,B,] [E,E]2 [E,B,]2 | %5
w: ~ ~ ~ ~|~ ~|~ ~ ~ ~|
 [B,,B,]3 [B,,B,] [B,,B,]2 [B,,B,]2 | [C,B,]2 [C,G,]2 [C,G,]2 [C,B,]2 | [F,A,]8 | %8
w: ~ ~ ~ ~|~ ~ ~ ~|~|
 [B,,F,]3 [B,,F,] [B,,F,]2 [B,,B,]2 | [B,,B,]3 [B,,B,] [B,,B,]2 [B,,F,]2 | %10
w: ~ ~ ~ ~|~ ~ ~ ~|
 [F,B,]3 [F,B,] [F,A,]2 [F,A,]2 | [B,,F,]2 [B,,B,]6 | [E,B,]3 [E,B,] [E,E]2 [E,B,]2 | %13
w: ~ ~ ~ ~|~ ~|~ ~ ~ ~|
 [F,B,]2 [F,B,]4 [E,B,]2 | [F,B,]4 [F,A,]4 | [B,,F,]6 || [B,,B,]2 | %17
w: ~ ~ ~|~ ~|~|I’m|
 [B,,F,]2 [B,,F,]4 [B,,B,]>[B,,B,] | [B,,F,]2 [B,,F,]4 [B,,F,]>[B,,F,] | %19
w: liv- ing on the|mount- ain, un- der-|
 [B,,B,]2 [B,,B,]2 [=B,,G,]2 [B,,G,]2 | ([C,A,]2 [F,A,]2 [F,A,]2) [F,A,]2 | %21
w: neath a cloud- less|sky. * * I’m|
 [F,C]2 [F,C]4 [F,B,]>[F,A,] | [B,,B,]2 [B,,B,]4 [B,,B,]2 | [C,B,]2 [C,B,]2 [C,B,]2 [C,B,]2 | %24
w: drink- ing at the|fount- ain that|ne- ver shall run|
 [F,A,]2 [F,A,]2 [F,B,]2 [F,A,]2 | [B,,B,]2 [B,,B,]4 [B,,B,]>[B,,B,] | %26
w: dry. O yes! I’m|feast- ing on the|
 [B,,B,]2 [B,,B,]4 [B,,B,]>[B,,B,] | [E,G,]2 [E,G,]2 [E,B,]2 [E,G,]2 | %28
w: man- na from a|bount- i- ful sup-|
 [B,,B,]2 [B,,B,]2 [B,,F,]2 [B,,F,]2 | [B,,B,]2 [B,,B,]4 [E,B,]2 | [F,B,]4 [F,A,]4 | [B,,F,]8 |] %32
w: ply, For I am|dwell- ing in|Beu- lah|Land.|

